X:6
T:Canon with fourth down, in Bb
M:3/2
L:1/2
Q:1/2=100
K:Bb
%%MIDI program 1 41 % Viola
%%MIDI program 2 41 % Viola
%%MIDI program 3 41 % Viola
%%MIDI program 4 41 % Viola
V:1
B|(d/>e/d)c|(B/>c/d)e|(f/>e/d)c|B2B|B2F|(G/>A/B)G|(FB)F|B2d|f2f|(d/>c/B)B|(d/>e/f)f|f2
B|(d/>e/f)f|(gf)(3(B/c/d/)|(cB)(3(A/B/c/)|(d/>c/B)d|(BF)F|(B/>c/d)B|(AB)(3(c/B/A/)|(B/>c/d)d|(f/e/d/c/)(B/A/)|(B/c/d/e/)(f/e/)|(d/f/B/d/)(3(c/B/A/)|B2
V:2
z|z2
F|(A/2>B/2A)G|(F/2>G/2A)B|(c/2>B/2A)G|F2
F|F2C|(D/2>E/2F)D|(CF)C|F2
A|c2c|(A/2>G/2F)F|(A/2>B/2c)c|c2
F|(A/2>B/2c)c|(dc)(3(F/2G/2A/2)|(GF)(3(E/2F/2G/2)|(A/2>G/2F)
A|(FC)C|(F/2>G/2A)F|(EF)(3(G/2F/2E/2)|(F/2>G/2A)
A|(c/2B/2A/2G/2)(F/2E/2)|(F/2G/2A/2B/2)(c/2B/2)|(A/2c/2F/2A/2)(3(G/2F/2E/2)|F2


